sugar-event-calendar/includes/admin/assets/images/sugar-calendar-logo-light.svg

<svg viewBox="0 0 254 36" xmlns="http://www.w3.org/2000/svg" fill-rule="evenodd" clip-rule="evenodd" stroke-linejoin="round" stroke-miterlimit="2"><path d="M0.2,0.01c0.171,0 0.196,-0.086 0.196,-0.147c0,-0.103 -0.07,-0.134 -0.137,-0.153c-0.063,-0.018 -0.114,-0.026 -0.114,-0.074c0,-0.04 0.04,-0.055 0.083,-0.055c0.054,0 0.112,0.029 0.137,0.054l0.011,-0.106c-0.027,-0.018 -0.092,-0.037 -0.157,-0.037c-0.141,0 -0.183,0.089 -0.183,0.159c0,0.096 0.074,0.119 0.144,0.14c0.049,0.015 0.092,0.029 0.092,0.071c0,0.025 -0.016,0.055 -0.076,0.055c-0.056,0 -0.123,-0.026 -0.154,-0.05l-0.011,0.106c0.029,0.019 0.091,0.037 0.169,0.037Z" fill="#b4bbc1" fill-rule="nonzero" transform="matrix(34.5323 0 0 34.22243 46.93 27.446)"/><path d="M0.494,0l0,-0.5l-0.124,0l0,0.364c-0.023,0.027 -0.053,0.042 -0.094,0.042c-0.07,0 -0.099,-0.044 -0.099,-0.137l0,-0.269l-0.124,0l0,0.269c0,0.141 0.056,0.241 0.212,0.241c0.039,0 0.082,-0.018 0.111,-0.04l0.002,0.03l0.116,0Z" fill="#b4bbc1" fill-rule="nonzero" transform="matrix(34.5323 0 0 34.22243 61.537 27.446)"/><path d="M0.26,0.25c0.154,0 0.239,-0.064 0.239,-0.161c0,-0.121 -0.13,-0.142 -0.201,-0.151c-0.082,-0.01 -0.125,-0.017 -0.125,-0.041c0,-0.007 0.004,-0.013 0.011,-0.016c0.017,0.003 0.034,0.005 0.053,0.005c0.131,0 0.202,-0.09 0.202,-0.197c0,-0.04 -0.01,-0.079 -0.03,-0.11c0.011,-0.001 0.022,-0.001 0.028,-0.001l0.045,0l0.008,-0.078l-0.032,0c-0.047,0 -0.087,0.011 -0.107,0.022c-0.03,-0.019 -0.069,-0.03 -0.114,-0.03c-0.131,0 -0.203,0.09 -0.203,0.197c0,0.066 0.027,0.125 0.077,0.161c-0.033,0.016 -0.05,0.037 -0.05,0.068c0,0.033 0.018,0.055 0.045,0.072c-0.053,0.028 -0.082,0.064 -0.082,0.112c0,0.074 0.07,0.148 0.236,0.148l0,0Zm-0.023,-0.667c0.06,0 0.091,0.042 0.091,0.106c0,0.064 -0.031,0.106 -0.091,0.106c-0.061,0 -0.092,-0.042 -0.092,-0.106c0,-0.064 0.031,-0.106 0.092,-0.106l0,0Zm0.019,0.447c0.063,0.007 0.133,0.016 0.133,0.064c0,0.043 -0.058,0.068 -0.135,0.068c-0.081,0 -0.127,-0.028 -0.127,-0.072c0,-0.038 0.033,-0.057 0.069,-0.069c0.022,0.004 0.042,0.007 0.06,0.009l0,0Z" fill="#b4bbc1" fill-rule="nonzero" transform="matrix(34.5323 0 0 34.22243 80.599 27.446)"/><path d="M0.487,-0.092l-0.016,0c-0.036,0 -0.044,-0.005 -0.044,-0.08l0,-0.135c0,-0.145 -0.069,-0.201 -0.181,-0.201c-0.062,0 -0.122,0.015 -0.182,0.044l0.011,0.101c0.053,-0.026 0.092,-0.038 0.137,-0.038c0.064,0 0.087,0.025 0.09,0.082c-0.094,0.003 -0.281,0.038 -0.281,0.179c0,0.095 0.065,0.15 0.145,0.15c0.06,0 0.12,-0.021 0.153,-0.058c0.019,0.035 0.056,0.058 0.112,0.058l0.045,0l0.011,-0.102Zm-0.184,-0.029c-0.026,0.025 -0.063,0.036 -0.085,0.036c-0.047,0 -0.067,-0.019 -0.067,-0.06c0,-0.059 0.082,-0.087 0.152,-0.09l0,0.114Z" fill="#b4bbc1" fill-rule="nonzero" transform="matrix(34.5323 0 0 34.22243 97.9 27.446)"/><path d="M0.343,-0.508l-0.033,0c-0.057,0 -0.107,0.034 -0.133,0.061l-0.003,-0.053l-0.116,0l0,0.5l0.124,0l0,-0.341c0.014,-0.028 0.05,-0.05 0.091,-0.05l0.046,0l0.024,-0.117Z" fill="#b4bbc1" fill-rule="nonzero" transform="matrix(34.5323 0 0 34.22243 115.097 27.446)"/><path d="M0.271,0.01c0.08,0 0.118,-0.017 0.15,-0.037l-0.011,-0.106c-0.041,0.027 -0.081,0.041 -0.129,0.041c-0.08,0 -0.126,-0.064 -0.126,-0.157c0,-0.093 0.046,-0.157 0.126,-0.157c0.048,0 0.088,0.014 0.129,0.041l0.011,-0.106c-0.032,-0.02 -0.07,-0.037 -0.15,-0.037c-0.16,0 -0.243,0.119 -0.243,0.259c0,0.14 0.083,0.259 0.243,0.259Z" fill="#b4bbc1" fill-rule="nonzero" transform="matrix(34.5323 0 0 34.22243 126.596 27.446)"/><path d="M0.487,-0.092l-0.016,0c-0.036,0 -0.044,-0.005 -0.044,-0.08l0,-0.135c0,-0.145 -0.069,-0.201 -0.181,-0.201c-0.062,0 -0.122,0.015 -0.182,0.044l0.011,0.101c0.053,-0.026 0.092,-0.038 0.137,-0.038c0.064,0 0.087,0.025 0.09,0.082c-0.094,0.003 -0.281,0.038 -0.281,0.179c0,0.095 0.065,0.15 0.145,0.15c0.06,0 0.12,-0.021 0.153,-0.058c0.019,0.035 0.056,0.058 0.112,0.058l0.045,0l0.011,-0.102Zm-0.184,-0.029c-0.026,0.025 -0.063,0.036 -0.085,0.036c-0.047,0 -0.067,-0.019 -0.067,-0.06c0,-0.059 0.082,-0.087 0.152,-0.09l0,0.114Z" fill="#b4bbc1" fill-rule="nonzero" transform="matrix(34.5323 0 0 34.22243 142.067 27.446)"/><path d="M0.242,-0.092c-0.049,0 -0.06,0 -0.06,-0.08l0,-0.578l-0.124,0l0,0.629c0,0.072 0.039,0.131 0.128,0.131l0.045,0l0.011,-0.102Z" fill="#b4bbc1" fill-rule="nonzero" transform="matrix(34.5323 0 0 34.22243 159.264 27.446)"/><path d="M0.48,-0.223c0.005,-0.024 0.008,-0.046 0.008,-0.068c0,-0.132 -0.094,-0.217 -0.22,-0.217c-0.154,0 -0.24,0.12 -0.24,0.259c0,0.14 0.09,0.259 0.271,0.259c0.071,0 0.129,-0.018 0.167,-0.038l-0.006,-0.105c-0.041,0.022 -0.107,0.041 -0.154,0.041c-0.066,0 -0.135,-0.038 -0.149,-0.131l0.323,0Zm-0.208,-0.183c0.067,0 0.09,0.054 0.09,0.099l-0.202,0c0.012,-0.057 0.048,-0.099 0.112,-0.099Z" fill="#b4bbc1" fill-rule="nonzero" transform="matrix(34.5323 0 0 34.22243 168.173 27.446)"/><path d="M0.499,0l0,-0.269c0,-0.141 -0.057,-0.239 -0.213,-0.239c-0.039,0 -0.081,0.017 -0.11,0.038l-0.002,-0.03l-0.116,0l0,0.5l0.124,0l0,-0.363c0.023,-0.027 0.052,-0.043 0.094,-0.043c0.07,0 0.099,0.044 0.099,0.137l0,0.269l0.124,0Z" fill="#b4bbc1" fill-rule="nonzero" transform="matrix(34.5323 0 0 34.22243 185.957 27.446)"/><path d="M0.514,0l0,-0.75l-0.124,0l0,0.275c-0.032,-0.021 -0.066,-0.033 -0.117,-0.033c-0.16,0 -0.245,0.119 -0.245,0.259c0,0.14 0.085,0.259 0.245,0.259c0.054,0 0.087,-0.014 0.122,-0.038l0.002,0.028l0.117,0Zm-0.233,-0.406c0.08,0 0.115,0.064 0.115,0.157c0,0.093 -0.035,0.157 -0.115,0.157c-0.08,0 -0.126,-0.064 -0.126,-0.157c0,-0.093 0.046,-0.157 0.126,-0.157Z" fill="#b4bbc1" fill-rule="nonzero" transform="matrix(34.5323 0 0 34.22243 205.019 27.446)"/><path d="M0.487,-0.092l-0.016,0c-0.036,0 -0.044,-0.005 -0.044,-0.08l0,-0.135c0,-0.145 -0.069,-0.201 -0.181,-0.201c-0.062,0 -0.122,0.015 -0.182,0.044l0.011,0.101c0.053,-0.026 0.092,-0.038 0.137,-0.038c0.064,0 0.087,0.025 0.09,0.082c-0.094,0.003 -0.281,0.038 -0.281,0.179c0,0.095 0.065,0.15 0.145,0.15c0.06,0 0.12,-0.021 0.153,-0.058c0.019,0.035 0.056,0.058 0.112,0.058l0.045,0l0.011,-0.102Zm-0.184,-0.029c-0.026,0.025 -0.063,0.036 -0.085,0.036c-0.047,0 -0.067,-0.019 -0.067,-0.06c0,-0.059 0.082,-0.087 0.152,-0.09l0,0.114Z" fill="#b4bbc1" fill-rule="nonzero" transform="matrix(34.5323 0 0 34.22243 224.737 27.446)"/><path d="M0.343,-0.508l-0.033,0c-0.057,0 -0.107,0.034 -0.133,0.061l-0.003,-0.053l-0.116,0l0,0.5l0.124,0l0,-0.341c0.014,-0.028 0.05,-0.05 0.091,-0.05l0.046,0l0.024,-0.117Z" fill="#b4bbc1" fill-rule="nonzero" transform="matrix(34.5323 0 0 34.22243 241.934 27.446)"/><g><path d="M1054.02,1351c0.078,-1.82 0.803,-3.548 2.033,-4.843c1.313,-1.381 3.093,-2.157 4.95,-2.157l0,0c1.857,0 3.637,0.776 4.95,2.157c1.23,1.295 1.955,3.023 2.033,4.843l46.034,0c0.078,-1.82 0.803,-3.548 2.033,-4.843c1.313,-1.381 3.093,-2.157 4.95,-2.157l0,0c1.857,0 3.637,0.776 4.95,2.157c1.23,1.295 1.955,3.023 2.033,4.843l2.362,0c15.271,0.009 27.655,13.083 27.655,29.186l0,75.628c0,16.103 -12.384,29.177 -27.655,29.186l-78.69,0c-15.263,0 -27.655,-13.078 -27.655,-29.186l0,-75.628c0,-16.103 12.384,-29.177 27.655,-29.186l2.362,0Zm68.983,117c4.784,-0.004 9.356,-1.999 12.728,-5.547c3.376,-3.552 5.272,-8.37 5.272,-13.393c0,-11.417 0,-25.396 0,-34.142c0,-2.233 -0.843,-4.374 -2.343,-5.952c-1.5,-1.579 -3.535,-2.466 -5.657,-2.466c-14.339,0 -44.194,0 -57.874,0c-3.936,0 -7.126,-3.357 -7.126,-7.498c0,-0.001 0,-0.003 0,-0.004c0,-4.141 3.19,-7.498 7.126,-7.498c16.789,0 57.939,0 64.874,0c0.552,0 1,-0.471 1,-1.052c0,-1.704 0,-5.261 0,-9.051c0,-7.399 -5.7,-13.397 -12.732,-13.397c0,0 -0.001,0 -0.001,0c-0.071,0 -0.139,0.03 -0.189,0.082c-0.05,0.053 -0.078,0.124 -0.078,0.199c0,0.007 0,0.013 0,0.02c0,3.589 -2.765,6.499 -6.176,6.499c-0.547,0 -1.101,0 -1.648,0c-3.411,0 -6.176,-2.91 -6.176,-6.499c0,0 0,-0.001 0,-0.002c0,-0.165 -0.127,-0.299 -0.284,-0.299c-3.671,0 -41.761,0 -45.432,0c-0.157,0 -0.284,0.134 -0.284,0.299c0,0.001 0,0.002 0,0.002c0,3.589 -2.765,6.499 -6.176,6.499c-0.547,0 -1.101,0 -1.648,0c-3.411,0 -6.176,-2.91 -6.176,-6.499c0,-0.007 0,-0.013 0,-0.02c0,-0.075 -0.028,-0.146 -0.078,-0.199c-0.05,-0.052 -0.118,-0.082 -0.189,-0.082c0,0 -0.001,0 -0.001,0c-3.377,0 -6.615,1.411 -9.003,3.924c-2.388,2.512 -3.729,5.92 -3.729,9.473c0,12.075 0,29.457 0,39.685c0,2.233 0.843,4.374 2.343,5.952c1.5,1.579 3.535,2.466 5.657,2.466c14.339,0 44.194,0 57.874,0c3.936,0 7.126,3.357 7.126,7.498c0,0.001 0,0.003 0,0.004c0,4.141 -3.19,7.498 -7.126,7.498c-16.789,0 -57.939,0 -64.874,0c-0.552,0 -1,0.471 -1,1.052c0,0.809 0,2.036 0,3.508c0,10.46 8.059,18.94 18,18.94l64,0Z" fill="#b4bbc1" transform="matrix(.26945 0 0 .25532 -275.918 -343.149)"/></g></svg>

<?xml version="1.0" encoding="UTF-8" standalone="no"?>
<!DOCTYPE svg PUBLIC "-//W3C//DTD SVG 1.1//EN" "http://www.w3.org/Graphics/SVG/1.1/DTD/svg11.dtd">
<svg width="100%" height="100%" viewBox="0 0 254 36" version="1.1" xmlns="http://www.w3.org/2000/svg" xmlns:xlink="http://www.w3.org/1999/xlink" xml:space="preserve" xmlns:serif="http://www.serif.com/" style="fill-rule:evenodd;clip-rule:evenodd;stroke-linejoin:round;stroke-miterlimit:2;">
    <g transform="matrix(0.58587,0,0,0.580613,19.9802,19.9024)">
        <g id="Text">
            <g>
                <g transform="matrix(58.9419,0,0,58.9419,46,12.9933)">
                    <path d="M0.2,0.01C0.371,0.01 0.396,-0.076 0.396,-0.137C0.396,-0.24 0.326,-0.271 0.259,-0.29C0.196,-0.308 0.145,-0.316 0.145,-0.364C0.145,-0.404 0.185,-0.419 0.228,-0.419C0.282,-0.419 0.34,-0.39 0.365,-0.365L0.376,-0.471C0.349,-0.489 0.284,-0.508 0.219,-0.508C0.078,-0.508 0.036,-0.419 0.036,-0.349C0.036,-0.253 0.11,-0.23 0.18,-0.209C0.229,-0.194 0.272,-0.18 0.272,-0.138C0.272,-0.113 0.256,-0.083 0.196,-0.083C0.14,-0.083 0.073,-0.109 0.042,-0.133L0.031,-0.027C0.06,-0.008 0.122,0.01 0.2,0.01Z" style="fill:rgb(180,187,193);fill-rule:nonzero;"/>
                </g>
                <g transform="matrix(58.9419,0,0,58.9419,70.9324,12.9933)">
                    <path d="M0.494,0L0.494,-0.5L0.37,-0.5L0.37,-0.136C0.347,-0.109 0.317,-0.094 0.276,-0.094C0.206,-0.094 0.177,-0.138 0.177,-0.231L0.177,-0.5L0.053,-0.5L0.053,-0.231C0.053,-0.09 0.109,0.01 0.265,0.01C0.304,0.01 0.347,-0.008 0.376,-0.03L0.378,0L0.494,0Z" style="fill:rgb(180,187,193);fill-rule:nonzero;"/>
                </g>
                <g transform="matrix(58.9419,0,0,58.9419,103.468,12.9933)">
                    <path d="M0.26,0.25C0.414,0.25 0.499,0.186 0.499,0.089C0.499,-0.032 0.369,-0.053 0.298,-0.062C0.216,-0.072 0.173,-0.079 0.173,-0.103C0.173,-0.11 0.177,-0.116 0.184,-0.119C0.201,-0.116 0.218,-0.114 0.237,-0.114C0.368,-0.114 0.439,-0.204 0.439,-0.311C0.439,-0.351 0.429,-0.39 0.409,-0.421C0.42,-0.422 0.431,-0.422 0.437,-0.422L0.482,-0.422L0.49,-0.5L0.458,-0.5C0.411,-0.5 0.371,-0.489 0.351,-0.478C0.321,-0.497 0.282,-0.508 0.237,-0.508C0.106,-0.508 0.034,-0.418 0.034,-0.311C0.034,-0.245 0.061,-0.186 0.111,-0.15C0.078,-0.134 0.061,-0.113 0.061,-0.082C0.061,-0.049 0.079,-0.027 0.106,-0.01C0.053,0.018 0.024,0.054 0.024,0.102C0.024,0.176 0.094,0.25 0.26,0.25L0.26,0.25ZM0.237,-0.417C0.297,-0.417 0.328,-0.375 0.328,-0.311C0.328,-0.247 0.297,-0.205 0.237,-0.205C0.176,-0.205 0.145,-0.247 0.145,-0.311C0.145,-0.375 0.176,-0.417 0.237,-0.417L0.237,-0.417ZM0.256,0.03C0.319,0.037 0.389,0.046 0.389,0.094C0.389,0.137 0.331,0.162 0.254,0.162C0.173,0.162 0.127,0.134 0.127,0.09C0.127,0.052 0.16,0.033 0.196,0.021C0.218,0.025 0.238,0.028 0.256,0.03L0.256,0.03Z" style="fill:rgb(180,187,193);fill-rule:nonzero;"/>
                </g>
                <g transform="matrix(58.9419,0,0,58.9419,132.998,12.9933)">
                    <path d="M0.487,-0.092L0.471,-0.092C0.435,-0.092 0.427,-0.097 0.427,-0.172L0.427,-0.307C0.427,-0.452 0.358,-0.508 0.246,-0.508C0.184,-0.508 0.124,-0.493 0.064,-0.464L0.075,-0.363C0.128,-0.389 0.167,-0.401 0.212,-0.401C0.276,-0.401 0.299,-0.376 0.302,-0.319C0.208,-0.316 0.021,-0.281 0.021,-0.14C0.021,-0.045 0.086,0.01 0.166,0.01C0.226,0.01 0.286,-0.011 0.319,-0.048C0.338,-0.013 0.375,0.01 0.431,0.01L0.476,0.01L0.487,-0.092ZM0.303,-0.121C0.277,-0.096 0.24,-0.085 0.218,-0.085C0.171,-0.085 0.151,-0.104 0.151,-0.145C0.151,-0.204 0.233,-0.232 0.303,-0.235L0.303,-0.121Z" style="fill:rgb(180,187,193);fill-rule:nonzero;"/>
                </g>
                <g transform="matrix(58.9419,0,0,58.9419,162.351,12.9933)">
                    <path d="M0.343,-0.508L0.31,-0.508C0.253,-0.508 0.203,-0.474 0.177,-0.447L0.174,-0.5L0.058,-0.5L0.058,0L0.182,0L0.182,-0.341C0.196,-0.369 0.232,-0.391 0.273,-0.391L0.319,-0.391L0.343,-0.508Z" style="fill:rgb(180,187,193);fill-rule:nonzero;"/>
                </g>
                <g transform="matrix(58.9419,0,0,58.9419,181.979,12.9933)">
                    <path d="M0.271,0.01C0.351,0.01 0.389,-0.007 0.421,-0.027L0.41,-0.133C0.369,-0.106 0.329,-0.092 0.281,-0.092C0.201,-0.092 0.155,-0.156 0.155,-0.249C0.155,-0.342 0.201,-0.406 0.281,-0.406C0.329,-0.406 0.369,-0.392 0.41,-0.365L0.421,-0.471C0.389,-0.491 0.351,-0.508 0.271,-0.508C0.111,-0.508 0.028,-0.389 0.028,-0.249C0.028,-0.109 0.111,0.01 0.271,0.01Z" style="fill:rgb(180,187,193);fill-rule:nonzero;"/>
                </g>
                <g transform="matrix(58.9419,0,0,58.9419,208.385,12.9933)">
                    <path d="M0.487,-0.092L0.471,-0.092C0.435,-0.092 0.427,-0.097 0.427,-0.172L0.427,-0.307C0.427,-0.452 0.358,-0.508 0.246,-0.508C0.184,-0.508 0.124,-0.493 0.064,-0.464L0.075,-0.363C0.128,-0.389 0.167,-0.401 0.212,-0.401C0.276,-0.401 0.299,-0.376 0.302,-0.319C0.208,-0.316 0.021,-0.281 0.021,-0.14C0.021,-0.045 0.086,0.01 0.166,0.01C0.226,0.01 0.286,-0.011 0.319,-0.048C0.338,-0.013 0.375,0.01 0.431,0.01L0.476,0.01L0.487,-0.092ZM0.303,-0.121C0.277,-0.096 0.24,-0.085 0.218,-0.085C0.171,-0.085 0.151,-0.104 0.151,-0.145C0.151,-0.204 0.233,-0.232 0.303,-0.235L0.303,-0.121Z" style="fill:rgb(180,187,193);fill-rule:nonzero;"/>
                </g>
                <g transform="matrix(58.9419,0,0,58.9419,237.738,12.9933)">
                    <path d="M0.242,-0.092C0.193,-0.092 0.182,-0.092 0.182,-0.172L0.182,-0.75L0.058,-0.75L0.058,-0.121C0.058,-0.049 0.097,0.01 0.186,0.01L0.231,0.01L0.242,-0.092Z" style="fill:rgb(180,187,193);fill-rule:nonzero;"/>
                </g>
                <g transform="matrix(58.9419,0,0,58.9419,252.945,12.9933)">
                    <path d="M0.48,-0.223C0.485,-0.247 0.488,-0.269 0.488,-0.291C0.488,-0.423 0.394,-0.508 0.268,-0.508C0.114,-0.508 0.028,-0.388 0.028,-0.249C0.028,-0.109 0.118,0.01 0.299,0.01C0.37,0.01 0.428,-0.008 0.466,-0.028L0.46,-0.133C0.419,-0.111 0.353,-0.092 0.306,-0.092C0.24,-0.092 0.171,-0.13 0.157,-0.223L0.48,-0.223ZM0.272,-0.406C0.339,-0.406 0.362,-0.352 0.362,-0.307L0.16,-0.307C0.172,-0.364 0.208,-0.406 0.272,-0.406Z" style="fill:rgb(180,187,193);fill-rule:nonzero;"/>
                </g>
                <g transform="matrix(58.9419,0,0,58.9419,283.3,12.9933)">
                    <path d="M0.499,0L0.499,-0.269C0.499,-0.41 0.442,-0.508 0.286,-0.508C0.247,-0.508 0.205,-0.491 0.176,-0.47L0.174,-0.5L0.058,-0.5L0.058,0L0.182,0L0.182,-0.363C0.205,-0.39 0.234,-0.406 0.276,-0.406C0.346,-0.406 0.375,-0.362 0.375,-0.269L0.375,0L0.499,0Z" style="fill:rgb(180,187,193);fill-rule:nonzero;"/>
                </g>
                <g transform="matrix(58.9419,0,0,58.9419,315.836,12.9933)">
                    <path d="M0.514,0L0.514,-0.75L0.39,-0.75L0.39,-0.475C0.358,-0.496 0.324,-0.508 0.273,-0.508C0.113,-0.508 0.028,-0.389 0.028,-0.249C0.028,-0.109 0.113,0.01 0.273,0.01C0.327,0.01 0.36,-0.004 0.395,-0.028L0.397,0L0.514,0ZM0.281,-0.406C0.361,-0.406 0.396,-0.342 0.396,-0.249C0.396,-0.156 0.361,-0.092 0.281,-0.092C0.201,-0.092 0.155,-0.156 0.155,-0.249C0.155,-0.342 0.201,-0.406 0.281,-0.406Z" style="fill:rgb(180,187,193);fill-rule:nonzero;"/>
                </g>
                <g transform="matrix(58.9419,0,0,58.9419,349.492,12.9933)">
                    <path d="M0.487,-0.092L0.471,-0.092C0.435,-0.092 0.427,-0.097 0.427,-0.172L0.427,-0.307C0.427,-0.452 0.358,-0.508 0.246,-0.508C0.184,-0.508 0.124,-0.493 0.064,-0.464L0.075,-0.363C0.128,-0.389 0.167,-0.401 0.212,-0.401C0.276,-0.401 0.299,-0.376 0.302,-0.319C0.208,-0.316 0.021,-0.281 0.021,-0.14C0.021,-0.045 0.086,0.01 0.166,0.01C0.226,0.01 0.286,-0.011 0.319,-0.048C0.338,-0.013 0.375,0.01 0.431,0.01L0.476,0.01L0.487,-0.092ZM0.303,-0.121C0.277,-0.096 0.24,-0.085 0.218,-0.085C0.171,-0.085 0.151,-0.104 0.151,-0.145C0.151,-0.204 0.233,-0.232 0.303,-0.235L0.303,-0.121Z" style="fill:rgb(180,187,193);fill-rule:nonzero;"/>
                </g>
                <g transform="matrix(58.9419,0,0,58.9419,378.845,12.9933)">
                    <path d="M0.343,-0.508L0.31,-0.508C0.253,-0.508 0.203,-0.474 0.177,-0.447L0.174,-0.5L0.058,-0.5L0.058,0L0.182,0L0.182,-0.341C0.196,-0.369 0.232,-0.391 0.273,-0.391L0.319,-0.391L0.343,-0.508Z" style="fill:rgb(180,187,193);fill-rule:nonzero;"/>
                </g>
            </g>
        </g>
    </g>
    <g id="logo-mark" serif:id="logo mark" transform="matrix(0.269452,0,0,0.255319,-275.918,-343.149)">
        <path d="M1054.02,1351C1054.1,1349.18 1054.82,1347.45 1056.05,1346.16C1057.36,1344.78 1059.14,1344 1061,1344L1061,1344C1062.86,1344 1064.64,1344.78 1065.95,1346.16C1067.18,1347.45 1067.9,1349.18 1067.98,1351L1114.02,1351C1114.1,1349.18 1114.82,1347.45 1116.05,1346.16C1117.36,1344.78 1119.14,1344 1121,1344L1121,1344C1122.86,1344 1124.64,1344.78 1125.95,1346.16C1127.18,1347.45 1127.9,1349.18 1127.98,1351L1130.35,1351C1145.62,1351.01 1158,1364.08 1158,1380.19L1158,1455.81C1158,1471.92 1145.62,1484.99 1130.35,1485L1051.65,1485C1036.39,1485 1024,1471.92 1024,1455.81L1024,1380.19C1024,1364.08 1036.38,1351.01 1051.65,1351L1054.02,1351ZM1123,1468C1127.78,1468 1132.36,1466 1135.73,1462.45C1139.1,1458.9 1141,1454.08 1141,1449.06C1141,1437.64 1141,1423.66 1141,1414.92C1141,1412.68 1140.16,1410.54 1138.66,1408.97C1137.16,1407.39 1135.12,1406.5 1133,1406.5C1118.66,1406.5 1088.81,1406.5 1075.13,1406.5C1071.19,1406.5 1068,1403.14 1068,1399C1068,1399 1068,1399 1068,1399C1068,1394.86 1071.19,1391.5 1075.13,1391.5C1091.91,1391.5 1133.07,1391.5 1140,1391.5C1140.55,1391.5 1141,1391.03 1141,1390.45C1141,1388.74 1141,1385.19 1141,1381.4C1141,1374 1135.3,1368 1128.27,1368C1128.27,1368 1128.27,1368 1128.27,1368C1128.2,1368 1128.13,1368.03 1128.08,1368.08C1128.03,1368.13 1128,1368.21 1128,1368.28C1128,1368.29 1128,1368.29 1128,1368.3C1128,1371.89 1125.24,1374.8 1121.82,1374.8C1121.28,1374.8 1120.72,1374.8 1120.18,1374.8C1116.77,1374.8 1114,1371.89 1114,1368.3C1114,1368.3 1114,1368.3 1114,1368.3C1114,1368.13 1113.87,1368 1113.72,1368C1110.05,1368 1071.95,1368 1068.28,1368C1068.13,1368 1068,1368.13 1068,1368.3C1068,1368.3 1068,1368.3 1068,1368.3C1068,1371.89 1065.24,1374.8 1061.82,1374.8C1061.28,1374.8 1060.72,1374.8 1060.18,1374.8C1056.77,1374.8 1054,1371.89 1054,1368.3C1054,1368.29 1054,1368.29 1054,1368.28C1054,1368.21 1053.97,1368.13 1053.92,1368.08C1053.87,1368.03 1053.8,1368 1053.73,1368C1053.73,1368 1053.73,1368 1053.73,1368C1050.36,1368 1047.12,1369.41 1044.73,1371.92C1042.34,1374.44 1041,1377.84 1041,1381.4C1041,1393.47 1041,1410.85 1041,1421.08C1041,1423.32 1041.84,1425.46 1043.34,1427.03C1044.84,1428.61 1046.88,1429.5 1049,1429.5C1063.34,1429.5 1093.19,1429.5 1106.87,1429.5C1110.81,1429.5 1114,1432.86 1114,1437C1114,1437 1114,1437 1114,1437C1114,1441.14 1110.81,1444.5 1106.87,1444.5C1090.09,1444.5 1048.93,1444.5 1042,1444.5C1041.45,1444.5 1041,1444.97 1041,1445.55C1041,1446.36 1041,1447.59 1041,1449.06C1041,1459.52 1049.06,1468 1059,1468L1123,1468Z" style="fill:rgb(180,187,193);"/>
    </g>
</svg>
